X: 42101
T: Allana Creighton
C: Allan Kindness
R: jig
B: RSCDS 42-10
M: 6/8
L: 1/8
%--------------------
K: F
C \
| "F"A2A A^GA | G2F "(C7)"C3 | "F"A^GA "D7"B2A | "Gm"D3 "G7"D3 \
| "C7"E^DE G2B | e3 d3 | c=Bc d2c | "F"A3 A2 ||
C \
| "F"A2A A^GA | G2F "(C7)"C3 | "F"A^GA "D7"B2A | "Gm"D3 "G7"D3 \
| "C7"E^DE G2B | e3 d3 | cdc CDE | "F"F3 F2 ||
G \
| "F"F2f fef | e2d "(C7)"c3 | "F"c=Bc "D7"A2c | "Gm"B3 B2A \
| "G7"G2g g^fg | "C"f2e e2d | "C7"c=Bc d2c | "F"A3 A2 ||
G \
| "F"F2f fef | e2d "(C7)"c3 | "F"fef e2_e | "Bb"d3 d2e \
| "Bb"fef "E/G#"e2d | "Am"c3 "D7"A3 | "Gm"c=Bc "C7"CDE | "F"F3 F2 |]
%%center Book42/42101-Allana_Creighton-1.abc

%%sep 1 1 500
%%sep 1 1 500

